X:0206
M:C
L:1/8
Q:1/2=76
K:G
   dcde d2c2|BABc B2g2|f2ed e2d^c  |   (d4 d2):|
d2|g2d2 B2AG|e2e2 d2cB|c2de dcBc   |{B}TA4 D4  |
   GFGA BABc|d2ef g2c2|BAGA D2F2   |    G4 G2 :|

